X: 6447
T: Castlerock Road
R: reel
M: 4/4
K: Dmajor
[|^GAA/A/A FAdf|edce dee/e/d|gBdg fAdf|ee/e/ed cBAG|
FAA/A/G FAdf|edce dee/e/d|gBdg fAdf|1 edce d3 B:|2 edce d3 f||
|:gBdg fAdf|edce dee/e/d|gBdg fe(d2|d)cAG FAdf|
gBdg fAdf|edce d3 B|ABde fgaf|1 edef dee/e/d:|2 edef dd/d/de||
|:fdaf dafd|edae daed|ddbd dbdd|cdac dacd|
ABB/B/A Bcde|eff/f/d e/e/dBd|ABde fgaf|1 edef dd/d/de:|2 edef d3 B||

